src/components/Icon/assets/devices.svg

<svg width="24" height="24" viewBox="0 0 24 24" fill="none" xmlns="http://www.w3.org/2000/svg">
<g clip-path="url(#clip0)">
<path fill-rule="evenodd" clip-rule="evenodd" d="M3.50582 5.00012H20.5058C21.3328 5.00012 22.0058 5.67312 22.0058 6.50012V9.00012H20.0058V7.00012H4.00582V17.0231L14.0118 17.0811L13.9998 19.0811L-0.000183105 19.0001L0.0118169 17.0001L2.00582 17.0121V6.50012C2.00582 5.67312 2.67882 5.00012 3.50582 5.00012ZM20.006 20H17.006V12H20.006V20ZM15.506 10H21.506C21.782 10 22.006 10.224 22.006 10.5V21.5C22.006 21.776 21.782 22 21.506 22H15.506C15.229 22 15.006 21.776 15.006 21.5V10.5C15.006 10.224 15.229 10 15.506 10Z" fill="#65676A"/>
</g>
<defs>
<clipPath id="clip0">
<rect width="24" height="24" fill="white"/>
</clipPath>
</defs>
</svg>

<svg xmlns="http://www.w3.org/2000/svg" width="24" height="24" viewBox="0 0 24 24">
    <path fill="#65676A" fill-rule="evenodd" d="M21.506 10c.276 0 .5.224.5.5v11c0 .276-.224.5-.5.5h-6c-.277 0-.5-.224-.5-.5v-11c0-.276.223-.5.5-.5zm-1.5 2h-3v8h3v-8zm.5-7c.827 0 1.5.673 1.5 1.5V9h-2V7h-16v10.023l10.006.058-.012 2-14-.08.012-2 1.994.011V6.5c0-.827.673-1.5 1.5-1.5z"/>
</svg>
